X:1
T:Staincliffe, LM
T:Staincliffe, LM
T:Robert William Dixon (1750-1825) 
T:Public Domain Courtesy of the Cyber Hymnal™
C:Robert William Dixon (1750-1825)
Z:Public Domain
Z:Courtesy of the Cyber Hymnal™
%%score ( 1 2 ) ( 3 4 )
L:1/8
M:3/4
K:Eb
V:1 treble 
V:2 treble 
V:3 bass 
V:4 bass 
V:1
 [EG]2 | (G2 ^F2) [EG]2 | [EA]4 [EG]2 | [DG]4 [DF]2 | E4 [FB]2 | ([GB]2 [^F=A]2) [GB]2 | %6
 [Ge]4 [EB]2 | (B2 A2) [EG]2 | ([EG]2 [DF]2) [DB]2 | (B2 F2) [EG]2 | A4 [EG]2 | (G2 A2) [EB]2 | %12
 [Ec]4 [EB]2 | B2 d2 [Ec]2 | B4 (EF) | [EG]4 [DF]2 | E6 |] %17
V:2
 x2 | E4 x2 | x6 | x6 | E4 x2 | x6 | x6 | D4 x2 | x6 | D4 x2 | (E2 D2) x2 | E4 x2 | x6 | D4 x2 | %14
 (F2 E2) E2 | x6 | E6 |] %17
V:3
 [E,B,]2 | (B,2 =A,2) [E,B,]2 | [E,C]4 [E,B,]2 | [B,,B,]4 [B,,A,]2 | [C,G,]4 [D,A,]2 | %5
 (B,2 C2) [E,B,]2 | [C,C]4 [G,B,]2 | [F,B,]4 [E,B,]2 | [B,,B,]4 B,2 | [A,B,]4 [G,B,]2 | %10
 (C2 B,2) [E,B,]2 | ([B,_D]2 [A,C]2) [G,B,]2 | A,4 [G,B,]2 | [F,A,]4 [E,G,]2 | %14
 ([D,A,]2 [E,G,]2) ([C,G,][A,,C]) | [B,,B,]4 [B,,A,]2 | [E,G,]6 |] %17
V:4
 x2 | E,4 x2 | x6 | x6 | x6 | E,4 x2 | x6 | x6 | x4 B,2 | x6 | F,4 x2 | x6 | A,4 x2 | x6 | x6 | %15
 x6 | x6 |] %17

